hero/outline/trash.svg

<svg width="24" height="24" viewBox="0 0 24 24" fill="none" xmlns="http://www.w3.org/2000/svg">
<path d="M14.7404 9L14.3942 18M9.60577 18L9.25962 9M19.2276 5.79057C19.5696 5.84221 19.9104 5.89747 20.25 5.95629M19.2276 5.79057L18.1598 19.6726C18.0696 20.8448 17.0921 21.75 15.9164 21.75H8.08357C6.90786 21.75 5.93037 20.8448 5.8402 19.6726L4.77235 5.79057M19.2276 5.79057C18.0812 5.61744 16.9215 5.48485 15.75 5.39432M3.75 5.95629C4.08957 5.89747 4.43037 5.84221 4.77235 5.79057M4.77235 5.79057C5.91878 5.61744 7.07849 5.48485 8.25 5.39432M15.75 5.39432V4.47819C15.75 3.29882 14.8393 2.31423 13.6606 2.27652C13.1092 2.25889 12.5556 2.25 12 2.25C11.4444 2.25 10.8908 2.25889 10.3394 2.27652C9.16065 2.31423 8.25 3.29882 8.25 4.47819V5.39432M15.75 5.39432C14.5126 5.2987 13.262 5.25 12 5.25C10.738 5.25 9.48744 5.2987 8.25 5.39432" stroke="#0F172A" stroke-width="1.5" stroke-linecap="round" stroke-linejoin="round"/>
</svg>

<svg viewBox="0 0 24 24" xmlns="http://www.w3.org/2000/svg"><path fill="none" stroke="#000" stroke-linecap="round" stroke-linejoin="round" stroke-width="1.5" d="M14.74 9l-.35 9m-4.788 0l-.35-9m9.96-3.21c.34.05.68.1 1.02.16m-1.03-.17l-1.07 13.88v0c-.1 1.17-1.07 2.07-2.25 2.07H8.04v0c-1.18 0-2.16-.91-2.25-2.08L4.72 5.76m14.45 0l-.001-.001c-1.16-.18-2.32-.31-3.48-.4m-12 .56c.34-.06.68-.12 1.02-.17m0 0L4.71 5.74c1.15-.18 2.31-.31 3.47-.4m7.5 0v-.92c0-1.18-.91-2.164-2.09-2.201l-.001 0c-1.11-.04-2.22-.04-3.32 0 -1.18.03-2.09 1.02-2.09 2.2v.91m7.5 0v0c-2.5-.2-5.01-.2-7.5 0"/></svg>
